X:13095
T:Pigeon on the Gate
R:Reel
S:
H:
N:
D:Milltown Malbay Concertina Recital
Z:Adrian Scahill
M:4/4
L:1/8
K:G
EA,A,2 EGFD|E3F EDB,A,|G,3B (3DED B,A,|G,B,DG EDBD|\
EA,A,2 EGFD|E2DG EDB,A,|G,A,B,D EAAF|GEDB, A,2AG:||\
E2AG A3G|E2AA fAeA|ED^CE AGFA|G2GA GEDG|\
E2AG A3G|E2AA fAeA|ED^CE AGFA|GEDB, A,2AG:||
